!!!!SEGMENT: pl-kk--i-540--001-001_rychling-wincenty-waclaw--kompleta-no-i-cum-invocarem.krn
!!!cenid: 18xx:4461
!!!COM: Rychling, Wincenty Wacław
!!!COM-rismID: pe50046026
!!!CDT: 1841/01/09-1896/01/11
!!!CNT: Polish
!!!GTL: Kompleta
!!!OTL: No. I. Cum invocarem
!!!OMV: 001
!!!PDT:
!!!AGN: Sacred
!!!YEC: Copyright 2022 Narodowy Instytut Fryderyka Chopina (https://polishscores.org)
!!!YEM: License CC-BY-4.0 (https://creativecommons.org/licenses/by/4.0)
!!!SMS-siglum: PL-Kk
!!!SMS-shelfmark: I.540
!!!SMS-variant: Partytura PL-Kk Kk.I.540:1
!!!SMS-altvar: Tenor I PL-Kk Kk.I.540:8; Tenor II PL-Kk Kk.I.540:10; Bas I PL-Kk Kk.I.540:12; Bas II PL-Kk Kk.I.540:14
!!!SMS-shelfwork: 001-001 G
!!!NIFC-rismSourceID: 1001210701
!!!NIFC-rismChildID: 1001210705
!!!NIFC-islandoraID: pl-kk:16958
!!!URL-pdf-islandora: https://repozytorium.nifc.pl/islandora/object/pl-kk%3A16958/datastream/PDF/view
!!!URL-scan: https://polish.musicsources.pl/pl/lokalizacje/galeria/rekopisy/7167/1 @EN{Scan on Polish Music Sources Website} @PL{Skany w portalu Dziedzictwo Muzyki Polskiej w otwartym dostępie}
!!!IIIF:
!!!ONB-nifc: UWAGA: wg partytury, skan 1. Proszę uzupełnić SMS:variant (partytura) i SMS:altvar (głosy) wg instrukcji w wątku #53.
!!!OMD:
!!!AIN: 2 male
!!!key: C
**kern	**text	**text	**text	**text	**kern	**text	**text	**text	**text
*part2	*part2	*part2	*part2	*part2	*part1	*part1	*part1	*part1	*part1
*staff2	*staff2	*staff2	*staff2	*staff2	*staff1	*staff1	*staff1	*staff1	*staff1
*I"[Voice]	*	*	*	*	*I"[Voice]	*	*	*	*
*Imale	*	*	*	*	*Imale	*	*	*	*
*ICvox	*	*	*	*	*ICvox	*	*	*	*
*clefF4	*	*	*	*	*clefG	*	*	*	*
*	*	*	*	*	*ITrd8c12	*	*	*	*
*k[]	*	*	*	*	*k[]	*	*	*	*
*C:	*	*	*	*	*C:	*	*	*	*
*M2/2	*	*	*	*	*M2/2	*	*	*	*
*met(c|)	*	*	*	*	*met(c|)	*	*	*	*
=1	=1	=1	=1	=1	=1	=1	=1	=1	=1
!!LO:TX:t=P:problem=all/left
!!LO:TX:t=P:problem=all\right
*^	*	*	*	*	*^	*	*	*	*
*2\right	*	*	*	*	*	*	*2\right	*	*	*	*
*	*	*	*v:2	*v:3	*v:4	*	*	*v:1	*	*	*
2E/	2E\	.	Mi-	Fi-	Et	2c/	2G\	Cum	.	.	.
4E/	4E\	.	.	-li-	sci-	4c/	4G\	in-	.	.	.
4E/	4E\	.	.	-i,	-to-	4c/	4G\	-vo-	.	.	.
=2	=2	=2	=2	=2	=2	=2	=2	=2	=2	=2	=2
2E/	2E\	.	se-	ho-	-te	2c/	2A\	-ca-	.	.	.
2E/	2E\	.	.	-mi-	quoniam	2c/	2A\	-rem	.	.	.
=3	=3	=3	=3	=3	=3	=3	=3	=3	=3	=3	=3
4F/	4F\	.	-re-	-num	mi-	4c/	4A\	ex-	.	.	.
4F/	4F\	.	.	us-	-ri-	4c/	4A\	-au-	.	.	.
4F/	4F\	.	.	-que-	-fi-	4c/	4A\	-di-	.	.	.
4F/	4F\	.	.	.	-ca-	4c/	4A\	-vit	.	.	.
=4	=4	=4	=4	=4	=4	=4	=4	=4	=4	=4	=4
2F/	2F\	.	.	-quo	-vit	2c/	2A\	me	.	.	.
4F/	4F\	.	.	.	Do-	4c/	4A\	De-	.	.	.
4F/	4F\	.	.	.	-mi-	4c/	4A\	-us	.	.	.
!!LO:LB:g=original
=5	=5	=5	=5	=5	=5	=5	=5	=5	=5	=5	=5
2G/	2E\	.	-re	gra-	-nus	2c/	2G\	jus-	.	.	.
4G/	4E\	.	.	-vi,	san-	4c/	4G\	-ti-	.	.	.
4G/	4E\	.	.	.	-ctum	4c/	4G\	-ciae	.	.	.
=6	=6	=6	=6	=6	=6	=6	=6	=6	=6	=6	=6
2F/	2D\	.	me-	cor-	su-	2d/	2A\	me-	.	.	.
2F/	2D;\	.	-i	-de	-um	2A;/	2A\	-ae	.	.	.
=7	=7	=7	=7	=7	=7	=7	=7	=7	=7	=7	=7
2E/	2AA\	.	et	ut	Do-	2c/	2A\	in	.	.	.
4E/	4C\	.	ex-	quid	-mi-	4c/	4G\	tri-	.	.	.
4E/	4C\	.	-au-	di-	-nus	4c/	4G\	-bu-	.	.	.
=8	=8	=8	=8	=8	=8	=8	=8	=8	=8	=8	=8
4F/	4F\	.	-di	-li-	ex-	4c/	4A\	-la-	.	.	.
4F/	4F\	.	o-	-gi-	-au-	4c/	4A\	-ti-	.	.	.
4F/	4F\	.	-ra-	-tis	-diet	4c/	4A\	-o-	.	.	.
4F/	4F\	.	-ti-	van-	me	4c/	4A\	-ne	.	.	.
=9	=9	=9	=9	=9	=9	=9	=9	=9	=9	=9	=9
4E/	4C\	.	-o-	-i-	cum	4c/	4G\	di-	.	.	.
4E/	4C\	.	.	-ta-	cla-	4c/	4G\	-le-	.	.	.
4E/	4C\	.	.	-tem	-ma-	4c/	4G\	-ta-	.	.	.
4E/	4C\	.	-nem	et	-vero	4c/	4G\	-sti	.	.	.
=10	=10	=10	=10	=10	=10	=10	=10	=10	=10	=10	=10
2F/	2C\	.	me-	queri-	ed	2A/	2F\	mi-	.	.	.
2C/	2C\	.	-am	-tis	eum	2G/	2E\	-hi	.	.	.
*v	*v	*	*	*	*	*	*	*	*	*	*
*	*	*	*	*	*v	*v	*	*	*	*
==	==	==	==	==	==	==	==	==	==
*-	*-	*-	*-	*-	*-	*-	*-	*-	*-
!!!system-decoration: {(s1,s2)}
!!!ENC: Anastazja Marusiak
!!!END: 2023-10-29
!!!EED: Marta Chmielewska
!!!EEV: 2024-04-18
